X: 100332
T: DAVIE MOFFAT'S HORNPIPE
C: Composed by R. Baillie, Peter Baillie's Gransdon, Penicuick
R: hornpipe
B: K\"ohler's Violin Repository, v.3, 1885 p.234 #1
F: http://www.archive.org/details/klersviolinrepos03rugg
Z: 2012 John Chambers <jc:trillian.mit.edu>
M: C|
L: 1/8
K: A
((3uEFG) |\
(A>E)C>E (A>G)A>B | cagf ecAc | (d>f)e>d (c>e)d>c | B^ABc BGEG |
(A>E)C>E (A>G)A>B | cagf ecAc | dfed cEFG | B2A2 A2 :|
|: (ucA) |\
(F^E).F.G (AG).F.E | FAcf agfa | (ec)Ac eAfA | (GA)BG EBAG |
(FC)FG (Ac)BA | (GD)GA (Bd)cB | Acfa g^ece | f2F2 [F2A,2] :|

%%sep 2 1 500

